!!!!SEGMENT: pl-wtm--r-1607--005_stefani-jozef--requiem-benedictus.krn
!!!cenid: 18xx:2360
!!!COM: Stefani, Józef
!!!COM-rismID: pe30024097
!!!CDT: 1800/04/16-1876/03/19
!!!CNT: Polish
!!!OPR: Requiem
!!!OTL: Benedictus
!!!OMV: 005
!!!PDT:
!!!AGN: Sacred; Requiem
!!!SMS-siglum: PL-Wtm
!!!SMS-shelfmark: R 1607
!!!SMS-shelfwork: 001-005 M
!!!SMS-variant:
!!!SMS-altvar:
!!!NIFC-rismSourceID: 1001115431
!!!NIFC-rismChildID: 1001115431
!!!NIFC-islandoraID: pl-wtm:27353
!!!URL-pdf-islandora: https://repozytorium.nifc.pl/islandora/object/pl-wtm%3A27353/datastream/PDF/view
!!!URL-scan: https://polish.musicsources.pl/pl/lokalizacje/galeria/rekopisy/6385 @EN{Scan on Polish Music Sources Website} @PL{Skany w portalu Dziedzictwo Muzyki Polskiej w otwartym dostępie}
!!!ONB-nifc: UWAGA: części Requiem: 1. Requiem aeternam, 2. Dies irae, 3. Offertorium, 4. Sanctus, 5. Benedicuts, 6. Agnus Dei, 7. Salve Regina
!!!OMD: Andante.
!!!AIN: 2 empty 2 tenor
!!!key:
**kern	**kern	**kern	**text	**text	**text	**dynam	**kern	**text	**text	**dynam	**kern	**text	**text	**dynam
*part4	*part4	*part3	*part3	*part3	*part3	*part3	*part2	*part2	*part2	*part2	*part1	*part1	*part1	*part1
*staff5	*staff4	*staff3	*staff3	*staff3	*staff3	*	*staff2	*staff2	*staff2	*	*staff1	*staff1	*staff1	*
*Iempty	*Iorgan	*Iempty	*	*	*	*	*Itenor	*	*	*	*Itenor	*	*	*
*	*I"Organo	*I"Basſo	*	*	*	*	*I"Tenore II.o	*	*	*	*I"Tenore 1mo	*	*	*
*clefF4	*clefG2	*clefF4	*	*	*	*	*clefGv2	*	*	*	*clefGv2	*	*	*
*k[b-e-a-]	*k[b-e-a-]	*k[b-e-a-]	*	*	*	*	*k[b-e-a-]	*	*	*	*k[b-e-a-]	*	*	*
*E-:	*E-:	*E-:	*	*	*	*	*E-:	*	*	*	*E-:	*	*	*
*M3/4	*M3/4	*M3/4	*	*	*	*	*M3/4	*	*	*	*M3/4	*	*	*
=1	=1	=1	=1	=1	=1	=1	=1	=1	=1	=1	=1	=1	=1	=1
*2\right	*2\right	*2\right	*	*	*	*	*2\right	*	*	*	*2\right	*	*	*
!!LO:TX:t=P:problem:all\right:global
!	!	!	!	!	!	!	!	!	!	!	!LO:TX:t=P:problem=w źródle brak przenośnika oktawowego przy kluczu [problem #266]	!	!	!
!	!	!	!	!	!	!	!LO:TX:t=P:problem=w źródle brak przenośnika oktawowego przy kluczu [problem #266]	!	!	!	!	!	!	!
!	!	!	!	!	!	!	!	!	!	!	!LO:TX:a:Bi:t=Tercetto.	!	!	!
2.BB- 2.BBB-\	4B-/	4r	.	.	.	.	4r	.	.	.	4r	.	.	.
.	4c 4An/	4r	.	.	.	.	4r	.	.	.	4r	.	.	.
.	4d 4A-X/	(4BB-/	Be-	Wszech-	.	.	(4A-/	.	.	.	(4d\	.	.	.
=2	=2	=2	=2	=2	=2	=2	=2	=2	=2	=2	=2	=2	=2	=2
*	*	*	*	*	*	*	*	*	*	*	*	*	*	*
[2.E- [2.EE-\	2e- 2G/	2E-\)	.	-mo-	.	.	2G/)	.	.	.	2e-\)	.	.	.
.	4c 4A-/	4E-\	-ne-	-cny	.	.	4A-/	.	.	.	4c\	.	.	.
=3	=3	=3	=3	=3	=3	=3	=3	=3	=3	=3	=3	=3	=3	=3
4E-] 4EE-\]	4B- 4G/	2E-\	-di-	Pa-	.	.	(4.G/	.	.	.	(>[4.B-\	.	.	.
4r	4r	.	.	.	.	.	.	.	.	.	.	.	.	.
.	.	.	.	.	.	.	32G/LLL	.	.	.	32B-\LLL]	.	.	.
.	.	.	.	.	.	.	32A-/	.	.	.	32c\	.	.	.
.	.	.	.	.	.	.	32G/	.	.	.	32B-\	.	.	.
.	.	.	.	.	.	.	32F/JJJ)	.	.	.	32A-\JJJ	.	.	.
4r	4r	4E-\	-ctus	-nie	.	.	4E-/	.	.	.	4G/)	.	.	.
=4	=4	=4	=4	=4	=4	=4	=4	=4	=4	=4	=4	=4	=4	=4
*	*	*^	*	*	*	*	*^	*	*	*	*	*	*	*
!	!LO:TX:b:Bi:t=Senca Organo.	!	!	!	!	!	!	!	!	!	!	!	!	!	!	!
2.ryy	2.ryy	8.GG/	2ryy	Be-	Wie-	.	.	8.E-/	2ryy	.	.	.	2.r	.	.	.
.	.	16GG/	.	-ne-	-ku-	.	.	16E-/	.	.	.	.	.	.	.	.
.	.	4GG/	.	-di-	-i-	.	.	4E-/	.	.	.	.	.	.	.	.
.	.	8.BB-\	4BB-/	-ctus	-sty	.	.	8.F\	4F/	.	.	.	.	.	.	.
.	.	16BB-\	.	qui	.	.	.	16F\	.	.	.	.	.	.	.	.
!!LO:LB:g=original
*	*	*v	*v	*	*	*	*	*	*	*	*	*	*	*	*	*
*	*	*	*	*	*	*	*v	*v	*	*	*	*	*	*	*
=5	=5	=5	=5	=5	=5	=5	=5	=5	=5	=5	=5	=5	=5	=5
2.ryy	2.ryy	4E-\	ve-	Bo-	.	.	4G/	.	.	.	4r	.	.	.
.	.	4BB-/	-nit	-że	.	.	4F/	.	.	.	4r	.	.	.
!	!	!	!	!	!	!	!	!	!	!	!	!	!	!LO:DY:a
.	.	4r	.	.	.	.	4B-\	.	.	.	(4B-\	Be-	Któż	<
=6	=6	=6	=6	=6	=6	=6	=6	=6	=6	=6	=6	=6	=6	=6
*	*	*	*	*	*	*	*2\right	*	*	*	*	*	*	*
2.ryy	2.ryy	8r	.	.	.	.	2e-\	.	.	.	2g\)	.	się	.
.	.	[8E-\	Be-	Któż	.	.	.	.	.	.	.	.	.	.
.	.	4E-\]	.	się	.	.	.	.	.	.	.	.	.	.
.	.	4E-\	-ne-	Twym	.	.	(16d\LL	.	.	.	(16f\LL	-ne-	Twym	[
.	.	.	.	.	.	.	16c\	.	.	.	16e-\	.	.	.
.	.	.	.	.	.	.	16B-\	.	.	.	16d\	.	.	.
.	.	.	.	.	.	.	16A-\JJ)	.	.	.	16c\JJ)	.	.	.
=7	=7	=7	=7	=7	=7	=7	=7	=7	=7	=7	=7	=7	=7	=7
*	*	*^	*	*	*	*	*^	*	*	*	*^	*	*	*
2.ryy	2.ryy	4E-\	2E-/	-di-	spra-	.	.	4G/	2G\	.	.	.	4B-\	2B-/	di-	spra-	.
.	.	4E-/	.	-ctus	.	.	.	4G/	.	.	.	.	4B-\	.	-ctus	.	.
.	.	4E-/	4E-\	qui	-wom	.	.	4E-/	4E-\	.	.	.	4G/	4G\	qui	-wom	.
*	*	*v	*v	*	*	*	*	*	*	*	*	*	*	*	*	*	*
=8	=8	=8	=8	=8	=8	=8	=8	=8	=8	=8	=8	=8	=8	=8	=8	=8
2.ryy	2.ryy	(4.E-\	ve-	wy-	.	.	4.F/	2F\	.	.	.	4.A-/	2A-\	ve-	wy-	.
.	.	16D\LL	.	-dzi-	.	.	8F/	.	.	.	.	8A-/	.	.	-dzi-	.
.	.	16C\JJ)	.	.	.	.	.	.	.	.	.	.	.	.	.	.
.	.	8D\	-nit	-wo-	.	.	8F/	8F\	.	.	.	8A-/	8A-\	nit	-wo-	.
.	.	8BB-/	qui	-wać	.	.	8D/	8D\	.	.	.	8B-/	8B-\	qui	-wać	.
!!LO:LB:g=original
*	*	*	*	*	*	*	*	*	*	*	*	*v	*v	*	*	*
=9	=9	=9	=9	=9	=9	=9	=9	=9	=9	=9	=9	=9	=9	=9	=9
*	*	*^	*	*	*	*	*	*	*	*	*	*	*	*	*
2.ryy	2.ryy	4E-\	4ryy	ve-	mo-	.	.	4E-/	4ryy	.	.	.	4G/	.	.	.
.	.	8E-\	8ryy	-nit	-że	.	.	8E-/	8ryy	.	.	.	8G/	.	.	.
.	.	8C/L	8C\L	Be-	Kto	.	.	8G/	4G\	.	.	.	(16e-\LL	.	.	.
.	.	.	.	.	.	.	.	.	.	.	.	.	32f\L	.	.	.
.	.	.	.	.	.	.	.	.	.	.	.	.	32e-\JJJ)	.	.	.
.	.	8BBn/J	8BB\J	.	ro-	.	.	8G/	.	.	.	.	8d\	.	.	.
.	.	8C/	8C\	-ne-	-zu-	.	.	8G/	8G\	.	.	.	8e-\	.	.	.
=10	=10	=10	=10	=10	=10	=10	=10	=10	=10	=10	=10	=10	=10	=10	=10	=10
*	*	*	*	*	*	*	*	*	*	*	*	*	*^	*	*	*
2.ryy	2.ryy	4F/	4F\	-di-	-mo-	.	.	4An/	4ryy	.	.	.	4c/	4c\	.	.	.
.	.	8F/	8F\	-ctus	-wi	.	.	8A/	8ryy	.	.	.	8c/	8c\	.	.	.
.	.	16F/	8F\	Be-	Któ-	.	.	16B-/	16B-\LL	.	.	.	16d/	16d\LL	.	.	.
.	.	16F/	.	.	-rym	.	.	16A/	16A\JJ	.	.	.	16c/	16c\JJ	.	.	.
.	.	8F/	8F\	.	nie-	.	.	8G/	8G\	.	.	.	8B-/	8B-\	.	.	.
.	.	8F/	8F\	-ne-	-zmie-	.	.	8A/	8A\	.	.	.	8c/	8c\	.	.	.
*	*	*v	*v	*	*	*	*	*	*	*	*	*	*v	*v	*	*	*
=11	=11	=11	=11	=11	=11	=11	=11	=11	=11	=11	=11	=11	=11	=11	=11
2.ryy	2.ryy	4BB-/	-di-	-rzo-	.	.	4B-/	4B-\	.	.	.	4d\	.	.	.
.	.	8BB-/	-ctus	-na	.	.	8B-/	8B-\	.	.	.	8d\	.	.	.
.	.	8r	.	.	.	.	8r	8ryy	.	.	.	8r	.	.	.
.	.	(>4D\	qui	Zie-	.	.	(>4B-\	4ryy	.	.	.	[>4f\	.	.	.
!!LO:PB:g=original
*	*	*	*	*	*	*	*v	*v	*	*	*	*	*	*	*
=12	=12	=12	=12	=12	=12	=12	=12	=12	=12	=12	=12	=12	=12	=12
!	!	!	!	!	!	!	!LO:TX:t=P:problem=brak zakończenia łuku	!	!	!	!	!	!	!
2.ryy	2.ryy	2C/)	ve-	.	.	.	2G/)	.	.	.	4.f\]	.	.	.
.	.	.	.	.	.	.	.	.	.	.	8e-\	.	.	.
.	.	8F\	-nit	-mia	.	.	8B-\	.	.	.	8d\	.	.	.
.	.	8F\	qui	stwo-	.	.	8An\	.	.	.	8c\	.	.	.
=13	=13	=13	=13	=13	=13	=13	=13	=13	=13	=13	=13	=13	=13	=13
2.ryy	2.ryy	4BB-/	ve-	-rzo-	.	.	4B-\	.	.	.	4d\	.	.	.
.	.	8BB-/	-nit	-na	.	.	8B-\	.	.	.	8d\	.	.	.
.	.	8r	.	.	.	.	8r	.	.	.	8r	.	.	.
.	.	(4D\	qui	Zie-	.	.	(4B-\	.	.	.	([4f\	.	.	.
=14	=14	=14	=14	=14	=14	=14	=14	=14	=14	=14	=14	=14	=14	=14
2.ryy	2.ryy	2C/)	ve-	.	.	.	2G/)	.	.	.	4.f\]	.	.	.
.	.	.	.	.	.	.	.	.	.	.	8e-\)	.	.	.
.	.	8E-\	-nit	-mia	.	.	8G/	.	.	.	8c\	.	.	.
.	.	16r	.	.	.	.	16r	.	.	.	16r	.	.	.
!	!	!	!	!	!	!LO:DY:a	!	!	!	!	!	!	!	!LO:DY:a
.	.	16En\	in	ta	.	f	16c#X\	.	.	.	(16g\	.	.	f
=15	=15	=15	=15	=15	=15	=15	=15	=15	=15	=15	=15	=15	=15	=15
*	*	*^	*	*	*	*	*^	*	*	*	*^	*	*	*
2.ryy	2.ryy	(16F\LL	2ryy	no-	zie-	.	.	(8d/L	2ryy	.	.	.	16g\LL	2ryy	.	.	.
.	.	16B-\	.	.	.	.	.	.	.	.	.	.	16f\	.	.	.	.
.	.	16F\	.	.	.	.	.	16B-/L	.	.	.	.	16d\	.	.	.	.
.	.	16D\JJ)	.	.	.	.	.	16F/JJ)	.	.	.	.	16B-\JJ)	.	.	.	.
.	.	8.BB-/	.	-mi-	-mia	.	.	8.D/	.	.	.	.	8.F/	.	.	.	.
.	.	16F\	.	-ne	stwo-	.	.	16F/	.	.	.	.	16F/	.	.	.	.
.	.	8.AAn\	4AA/	Do-	-rzo-	.	.	8.F/L	8.F\	.	.	.	8.d/L	8.d\	.	.	.
.	.	16AA\	.	-mi-	.	.	.	16E-/Jk	16E-\	.	.	.	16c/Jk	16c\	.	.	.
!!LO:LB:g=original
*	*	*v	*v	*	*	*	*	*	*	*	*	*	*v	*v	*	*	*
*	*	*	*	*	*	*	*v	*v	*	*	*	*	*	*	*
=16	=16	=16	=16	=16	=16	=16	=16	=16	=16	=16	=16	=16	=16	=16
2.ryy	2.ryy	4BB-/	-ni	-na	.	.	4D/	.	.	.	4B-\	.	.	.
.	.	8r	.	.	.	.	4r	.	.	.	4r	.	.	.
.	.	(16BB-/LL|	Be-	[[Rzu-	Gdzie-	.	.	.	.	.	.	.	.	.
.	.	(32AAn/L	.	.	.	.	.	.	.	.	.	.	.	.
.	.	32BB-/JJJ))	.	.	.	.	.	.	.	.	.	.	.	.
.	.	8D\	.	-ca]]	-kol-	.	4r	.	.	.	4r	.	.	.
.	.	8F\	-ne-	.	-wiek	.	.	.	.	.	.	.	.	.
=17	=17	=17	=17	=17	=17	=17	=17	=17	=17	=17	=17	=17	=17	=17
*	*	*	*	*	*	*	*^	*	*	*	*^	*	*	*
2.ryy	2.ryy	(2.BB-/	-di-	słoń-	.	.	4r	4ryy	.	.	.	4r	4ryy	.	.	.
.	.	.	.	.	.	.	8r	8ryy	.	.	.	8r	8ryy	.	.	.
.	.	.	.	.	.	.	8B-/	8B-\L	.	.	.	8B-/	8B-\L	Be-	Gdzie-	.
.	.	.	.	.	.	.	8A-/	8A-\J	.	.	.	8c/	8c\J	.	-kol-	.
.	.	.	.	.	.	.	8F/	8F\	.	.	.	8d/	8d\	-ne-	-wie	.
*	*	*	*	*	*	*	*	*	*	*	*	*v	*v	*	*	*
=18	=18	=18	=18	=18	=18	=18	=18	=18	=18	=18	=18	=18	=18	=18	=18
*	*	*^	*	*	*	*	*	*	*	*	*	*	*	*	*
2.ryy	2.ryy	4E-\)	4ryy	.	.	.	.	4G/	4G\	.	.	.	(16f\LL	-di-	słoń-	.
.	.	.	.	.	.	.	.	.	.	.	.	.	16e-\	.	.	.
.	.	.	.	.	.	.	.	.	.	.	.	.	16d\	.	.	.
.	.	.	.	.	.	.	.	.	.	.	.	.	16e-\JJ)	.	.	.
.	.	8E-\	8ryy	-ctus	-ce	.	.	8G/	8G\	.	.	.	8B-\	-ctus	-ce	.
.	.	16BB-/	16BB-\LL	Be-	Rzu-	.	.	8r	8ryy	.	.	.	8r	.	.	.
.	.	32AAn/LLL	32AA\L	.	-ca	.	.	.	.	.	.	.	.	.	.	.
.	.	32BB-/JJJ	32BB-\JJJ	.	.	.	.	.	.	.	.	.	.	.	.	.
.	.	8E-/	8E-\L	ne-	o-	.	.	4r	4ryy	.	.	.	4r	.	.	.
.	.	8G/	8G\J	.	-gnie	.	.	.	.	.	.	.	.	.	.	.
*	*	*v	*v	*	*	*	*	*	*	*	*	*	*	*	*	*
=19	=19	=19	=19	=19	=19	=19	=19	=19	=19	=19	=19	=19	=19	=19	=19
*	*	*	*	*	*	*	*	*	*	*	*	*^	*	*	*
!	!	!LO:TX:t=P:problem=brak początku łuku	!	!	!	!	!	!	!	!	!	!	!	!	!	!
2.ryy	2.ryy	(2.BB-/	-di-	swo-	.	.	4r	4ryy	.	.	.	4r	4ryy	.	.	.
.	.	.	.	.	.	.	8r	8ryy	.	.	.	8r	8ryy	.	.	.
.	.	.	.	.	.	.	16B-/	8B-\L	.	.	.	16B-/	8B-\L	Be-	Rzu-	.
.	.	.	.	.	.	.	16B-/	.	.	.	.	16B-/	.	.	-ca	.
.	.	.	.	.	.	.	8A-/	8A-\	.	.	.	8c/	8c\	.	o-	.
.	.	.	.	.	.	.	8F/	8F\J	.	.	.	8d/	8d\J	-ne-	-gnie	.
!!LO:LB:g=original
=20	=20	=20	=20	=20	=20	=20	=20	=20	=20	=20	=20	=20	=20	=20	=20	=20
*	*	*^	*	*	*	*	*	*	*	*	*	*	*	*	*	*
2.ryy	2.ryy	4E-\)	4ryy	.	.	.	.	4G/	4ryy	.	.	.	(16f\LL	2ryy	-di-	swo-	.
.	.	.	.	.	.	.	.	.	.	.	.	.	16e-\	.	.	.	.
.	.	.	.	.	.	.	.	.	.	.	.	.	16g\	.	.	.	.
.	.	.	.	.	.	.	.	.	.	.	.	.	16e-\JJ)	.	.	.	.
.	.	8E-\	8ryy	-ctus	-je	.	.	8G/	8ryy	.	.	.	8B-\	.	-ctus	-je	.
!	!	!	!	!	!	!	!LO:DY:a	!	!	!	!	!	!	!	!	!	!LO:DY:a
.	.	8E-/	8E-\L	in	po	.	f	8G/	8G\L	.	.	.	16e-\LL	.	in	po	f
.	.	.	.	.	.	.	.	.	.	.	.	.	32f\L	.	.	.	.
.	.	.	.	.	.	.	.	.	.	.	.	.	32e-\JJJ	.	.	.	.
.	.	8F/	8F\	.	ca-	.	.	8A-/	8A-\	.	.	.	8d/	8d\L	.	ca-	.
.	.	8G/	8G\J	.	-łym	.	.	8B-/	8B-\J	.	.	.	8e-/	8e-\J	.	-łym	.
=21	=21	=21	=21	=21	=21	=21	=21	=21	=21	=21	=21	=21	=21	=21	=21	=21	=21
2.ryy	2.ryy	8A-/	4A-\	no-	świe-	.	.	8A-/	4A-\	.	.	.	8c/	4c\	.	.	.
.	.	8A-/	.	.	-cie	.	.	8A-/	.	.	.	.	8c/	.	.	.	.
.	.	8.F\	4ryy	-mi-	sły-	.	.	8.c\	4ryy	.	.	.	8.a-\	4ryy	.	.	.
.	.	16F\	.	-ne	-nie	.	.	16A-/	.	.	.	.	16c\	.	.	.	.
.	.	8.B-\	4ryy	Do-	I-	.	.	8.B-/	4ryy	.	.	.	8.d\	4ryy	.	.	.
.	.	16BB-/	.	-mi-	-mie	.	.	16A-/	.	.	.	.	16f\	.	.	.	.
=22	=22	=22	=22	=22	=22	=22	=22	=22	=22	=22	=22	=22	=22	=22	=22	=22	=22
2.ryy	2.ryy	4E-/	4E-\	-ni	Two-	.	.	4G/	4G\	.	.	.	4e-/	4e-\	.	.	.
.	.	8E-/	8r	.	-je	.	.	8G/	4r	.	.	.	8e-/	4r	.	.	.
.	.	8E-/	8E-\L	O-	Bo	.	.	8r	.	.	.	.	8r	.	.	.	.
.	.	8G/	8G\	.	sła-	.	.	4r	4r	.	.	.	4rC	4rf	.	.	.
.	.	8A-/	8A-\J	.	-wy	.	.	.	.	.	.	.	.	.	.	.	.
!!LO:LB:g=original
*	*	*	*	*	*	*	*	*	*	*	*	*	*v	*v	*	*	*
=23	=23	=23	=23	=23	=23	=23	=23	=23	=23	=23	=23	=23	=23	=23	=23	=23
2.ryy	2.ryy	(2B-/	2B-\	-san-	Nie-	.	.	4r	4ryy	.	.	.	2.r	.	.	.
.	.	.	.	.	.	.	.	8r	8ryy	.	.	.	.	.	.	.
.	.	.	.	.	.	.	.	8B-/	8B-\L	O-	Bo	.	.	.	.	.
.	.	8B-/L	8B-\L	.	.	.	.	8d/	8d\	.	sła-	.	.	.	.	.
.	.	8A-/J	8A-\J	.	.	.	.	8f/	8f\J	.	-wy	.	.	.	.	.
*	*	*v	*v	*	*	*	*	*	*	*	*	*	*	*	*	*
*	*	*	*	*	*	*	*v	*v	*	*	*	*	*	*	*
=24	=24	=24	=24	=24	=24	=24	=24	=24	=24	=24	=24	=24	=24	=24
2.ryy	2.ryy	4G\)	.	.	.	.	4e-\	-san-	Nie-	.	4r	.	.	.
.	.	8G\	-na	-bo	.	.	8e-\	-na	-bo	.	8r	.	.	.
.	.	8r	.	.	.	.	8e-\	O-	Bo	.	8g\	O-	Bo	.
.	.	4E-\	O-	Nie-	.	.	(16d\LL	.	sła-	.	(16f\LL	-[[san-	sła-	.
.	.	.	.	.	.	.	16c\JJ)	.	.	.	16e-\JJ)	.	.	.
.	.	.	.	.	.	.	(16B-/LL	.	-wy	.	(16d\LL	-na]]-	-wy	.
.	.	.	.	.	.	.	16A-/JJ)	.	.	.	16c\JJ)	.	.	.
=25	=25	=25	=25	=25	=25	=25	=25	=25	=25	=25	=25	=25	=25	=25
2.ryy	2.ryy	4E-\	-san-	.	.	.	4G/	-san-	Nie-	.	4B-/	-san-	Nie-	.
.	.	4E-\	-na	-bo	.	.	4E-/	-na	-bo	.	4G/	-na	-bo	.
!	!	!	!	!	!	!LO:DY:a	!	!	!	!LO:DY:a	!	!	!	!LO:DY:a
.	.	4E-\	o-	o-	.	p	4E-/	.	.	p	4G/	O-	o-	p
=26	=26	=26	=26	=26	=26	=26	=26	=26	=26	=26	=26	=26	=26	=26
2.ryy	2.ryy	(4.E-\	-san-	-gara-	.	.	2F/	.	.	.	2A-/	-san-	-garn-	.
.	.	16D\LL	.	-[[nąć]]-	.	.	.	.	.	.	.	.	.	.
.	.	16C\JJ)	.	.	.	.	.	.	.	.	.	.	.	.
.	.	8.D\	-na,	-nąć	.	.	8.F/	.	.	.	8.A-/	-na	-nąć	.
.	.	16BB-/	o-	nie	.	.	16D/	.	.	.	16B-/	o-	nie	.
!!LO:PB:g=original
=27	=27	=27	=27	=27	=27	=27	=27	=27	=27	=27	=27	=27	=27	=27
*	*	*^	*	*	*	*	*^	*	*	*	*^	*	*	*
2.ryy	2.ryy	4E-\	4ryy	-san-	mo-	.	.	4E-/	4ryy	.	.	.	4G/	4.ryy	-san-	mo-	.
.	.	8E-\	8ryy	-na	-że	.	.	8E-/	8ryy	.	.	.	8G/	.	-na	-że	.
.	.	16r	16ryy	.	.	.	.	16r	16ryy	.	.	.	16r	16ryy	.	.	.
!	!	!	!	!	!	!	!LO:DY:a	!	!	!	!	!	!	!	!	!	!LO:DY:a
.	.	16AA-/	16AA-\KL	in	Po-	.	f	16A-/	16A-\KL	.	.	.	16c/	16c\KL	.	.	f
.	.	8.BB-/	8.BB-\J	.	-tę-	.	.	8.G/	8.G\J	.	.	.	8.B-/	8.B-\J	.	.	.
.	.	16BBn/	16BB\	ex-	-żny	.	.	16A-/	16A-\	.	.	.	16d/	16d\	.	.	.
=28	=28	=28	=28	=28	=28	=28	=28	=28	=28	=28	=28	=28	=28	=28	=28	=28	=28
2.ryy	2.ryy	4C/	2ryy	-cel-	Bo-	.	.	4G/	2ryy	.	.	.	4e-\	2ryy	.	.	.
.	.	8C/	.	-sis	-że	.	.	8G/	.	.	.	.	8e-\	.	.	.	.
.	.	8r	.	.	.	.	.	8r	.	.	.	.	8r	.	.	.	.
.	.	8E-/L	8E-\	in	Po-	.	.	4G/	8G\	.	.	.	8c/L	8c\	.	.	.
.	.	8En/J	8E\	ex-	.	.	.	.	8G\	.	.	.	8c#X/J	8c#\	.	.	.
*	*	*v	*v	*	*	*	*	*	*	*	*	*	*v	*v	*	*	*
*	*	*	*	*	*	*	*v	*v	*	*	*	*	*	*	*
=29	=29	=29	=29	=29	=29	=29	=29	=29	=29	=29	=29	=29	=29	=29
2.ryy	2.ryy	4.F\	-cel-	-tę-	.	.	4.B-\	.	.	.	4.d\	.	.	.
.	.	(16E-X\LL	-sis	-żny	.	.	16An\LL	.	.	.	(16cn\LL	.	.	.
.	.	16D\JJ)	.	.	.	.	16B-\JJ	.	.	.	16B-\JJ)	.	.	.
.	.	8C/L	De-	Bo-	.	.	8G/L	.	.	.	(8e-\L	De-	Bo-	.
.	.	8FF/J	.	.	.	.	8E-/J	.	.	.	8An\J)	.	.	.
=30	=30	=30	=30	=30	=30	=30	=30	=30	=30	=30	=30	=30	=30	=30
2.ryy	2.ryy	8.BB-/	-o	-że	.	.	8.D/	.	.	.	8.B-\	-o	-że	.
.	.	(16BB-/	Be-	Wszech-	.	.	(16G/	.	.	.	(16B-\	Be-	Wszech-	.
.	.	2BB-/	.	.	.	.	4F#X/	.	.	.	4c\	.	.	.
.	.	.	.	.	.	.	4Fn/	.	.	.	4d\	.	.	.
!!LO:LB:g=original
=31	=31	=31	=31	=31	=31	=31	=31	=31	=31	=31	=31	=31	=31	=31
!	!	!LO:TX:t=P:problem=zakończenie łuku na górze	!	!	!	!	!	!	!	!	!	!	!	!
2.ryy	2.ryy	2E-\)	.	-mo-	.	.	2G/)	.	.	.	2e-\)	.	-mo-	.
.	.	4E-\	-ne-	-cny	.	.	4A-/	.	.	.	4c\	-ne-	-cny	.
=32	=32	=32	=32	=32	=32	=32	=32	=32	=32	=32	=32	=32	=32	=32
2.ryy	2.ryy	2E-\	-di-	Pa-	.	.	(4.G/	.	.	.	([4.B-/	-di-	Pa-	.
.	.	.	.	.	.	.	32G/LLL	.	.	.	32B-/LLL]	.	.	.
.	.	.	.	.	.	.	32A-/	.	.	.	32c/	.	.	.
.	.	.	.	.	.	.	32G/	.	.	.	32B-/	.	.	.
.	.	.	.	.	.	.	32F/JJJ)	.	.	.	32A-/JJJ)	.	.	.
.	.	4E-\	-ctus	-nie	.	.	4E-/	.	.	.	4G/	-ctus	-nie	.
=33	=33	=33	=33	=33	=33	=33	=33	=33	=33	=33	=33	=33	=33	=33
*	*	*^	*	*	*	*	*^	*	*	*	*	*	*	*
2.ryy	2.ryy	8.GG/	2ryy	Be-	Wie-	.	.	8.E-/	2ryy	.	.	.	2.r	.	.	.
.	.	16GG/	.	-ne-	-ku-	.	.	16E-/	.	.	.	.	.	.	.	.
.	.	4GG/	.	-di-	-i-	.	.	4E-/	.	.	.	.	.	.	.	.
.	.	8.BB-\	4BB-/	-ctus	-sty	.	.	8.F\	4F/	.	.	.	.	.	.	.
.	.	16BB-\	.	qui	.	.	.	16F\	.	.	.	.	.	.	.	.
*	*	*v	*v	*	*	*	*	*	*	*	*	*	*	*	*	*
*	*	*	*	*	*	*	*v	*v	*	*	*	*	*	*	*
=34	=34	=34	=34	=34	=34	=34	=34	=34	=34	=34	=34	=34	=34	=34
2.ryy	2.ryy	4E-\	ve-	Bo-	.	.	4G/	.	.	.	4r	.	.	.
.	.	4BB-/	-nit	-że	.	.	4F/	.	.	.	4r	.	.	.
!	!	!	!	!	!	!	!LO:TX:t=P:problem=brak początku łuku	!	!	!	!LO:TX:t=P:problem=brak początku łuku	!	!	!LO:DY:a
.	.	4r	.	.	.	.	(4B-\	.	.	.	(4B-\	Be-	Któż	f
!!LO:LB:g=original
=35	=35	=35	=35	=35	=35	=35	=35	=35	=35	=35	=35	=35	=35	=35
2.ryy	2.ryy	8r	.	.	.	.	2e-\)	.	.	.	2g\)	.	się	.
.	.	[8E-\	Be-	Któż	.	.	.	.	.	.	.	.	.	.
.	.	4E-\]	.	się	.	.	.	.	.	.	.	.	.	.
.	.	4E-\	-ne-	Twym	.	.	(16d\LL	.	.	.	(16f\LL	-ne-	Twym	.
.	.	.	.	.	.	.	16c\	.	.	.	16e-\	.	.	.
.	.	.	.	.	.	.	16B-\	.	.	.	16d\	.	.	.
.	.	.	.	.	.	.	16A-\JJ)	.	.	.	16c\JJ)	.	.	.
=36	=36	=36	=36	=36	=36	=36	=36	=36	=36	=36	=36	=36	=36	=36
*	*	*^	*	*	*	*	*^	*	*	*	*^	*	*	*
2.ryy	2.ryy	4E-\	2E-/	-di-	spra-	.	.	4G/	2G\	.	.	.	4B-\	2B-/	-di-	spra-	.
.	.	4E-\	.	-ctus	.	.	.	4G/	.	.	.	.	4B-\	.	-ctus	.	.
.	.	4E-/	4E-\	qui	-wom	.	.	4E-/	4E-\	.	.	.	4G/	4G\	qui	-wom	.
*	*	*v	*v	*	*	*	*	*	*	*	*	*	*	*	*	*	*
=37	=37	=37	=37	=37	=37	=37	=37	=37	=37	=37	=37	=37	=37	=37	=37	=37
*	*	*	*	*	*	*	*	*	*	*	*	*	*^	*	*	*
*	*	*	*	*	*	*	*	*	*	*	*	*	*	*^	*	*	*
2.ryy	2.ryy	4.E-\	ve-	wy-	.	.	2F\	4.F/	.	.	.	4.A-/	4.A-\	2A-/	2A-\	ve-	wy-	.
.	.	(16D\LL	.	-dzi-	.	.	.	8F/	.	.	.	8A-/	8A-\	.	.	.	-dzi-	.
.	.	16C\JJ)	.	.	.	.	.	.	.	.	.	.	.	.	.	.	.	.
.	.	8D\	-nit	-wo-	.	.	8F/	8F\	.	.	.	8A-/	8A-\	4ryy	4ryy	-nit	-wo-	.
.	.	8BB-/	qui	-wać	.	.	8D/	8D\	.	.	.	8B-/	8B-\	.	.	qui	-wać	.
*	*	*	*	*	*	*	*	*	*	*	*	*	*	*v	*v	*	*	*
*	*	*	*	*	*	*	*	*	*	*	*	*	*v	*v	*	*	*
=38	=38	=38	=38	=38	=38	=38	=38	=38	=38	=38	=38	=38	=38	=38	=38	=38
*	*	*^	*	*	*	*	*	*	*	*	*	*	*	*	*	*
2.ryy	2.ryy	4E-\	4.ryy	ve-	mo-	.	.	4E-/	4.ryy	.	.	.	4G/	4ryy	ve-	mo-	.
.	.	8E-\	.	-nit	-że	.	.	8E-/	.	.	.	.	8G/	8ryy	-nit	-że	.
.	.	16r	16ryy	.	.	.	.	16r	16ryy	.	.	.	16r	16ryy	.	.	.
.	.	16AA-/	16AA-\	qui	Po-	.	.	16A-/	16A-\	.	.	.	(16c/	16c\KL	qui	Po-	.
.	.	8.BB-/	8.BB-\L	ve-	-tę-	.	.	8.G/	8.G\L	.	.	.	8.B-/	8.B-\	ve-	-tę-	.
.	.	16BBn/	16BB\Jk	.	-żny	.	.	16A-/	16A-\Jk	.	.	.	16d/)	16d\Jk	.	-żny	.
!!LO:LB:g=original
=39	=39	=39	=39	=39	=39	=39	=39	=39	=39	=39	=39	=39	=39	=39	=39	=39	=39
2.ryy	2.ryy	4.C\	4C/	-nit	Bo-	.	.	4.G\	4G/	.	.	.	4.e-\	4e-/	-nit	Bo-	.
.	.	.	8C/	.	-że	.	.	.	8G/	.	.	.	.	8e-/	.	-że	.
.	.	8r	8ryy	.	.	.	.	8r	8r	.	.	.	8r	8r	.	.	.
.	.	4BB-/	4BB-\	in	Po-	.	.	4G/	4G\	.	.	.	4en/	4e\	in	Po-	.
=40	=40	=40	=40	=40	=40	=40	=40	=40	=40	=40	=40	=40	=40	=40	=40	=40	=40
2.ryy	2.ryy	(4.AA-/	4.AA-\	no-	-tę-	.	.	4.A-\	2A-/	.	.	.	4.f\	2f/	no-	-tę-	.
.	.	8A-/)	8A-\	-mi-	.	.	.	8A-\	.	.	.	.	8f\	.	-mi-	.	.
.	.	4F/	4F\	-ne	-żny	.	.	4c/	4c\	.	.	.	4a-/	4a-\	-ne	-żny	.
*	*	*v	*v	*	*	*	*	*	*	*	*	*	*v	*v	*	*	*
*	*	*	*	*	*	*	*v	*v	*	*	*	*	*	*	*
=41	=41	=41	=41	=41	=41	=41	=41	=41	=41	=41	=41	=41	=41	=41
2.ryy	2.ryy	4B-\	Do-	Bo-	.	.	4B-/	.	.	.	(2d\	Do-	Bo-	.
.	.	(4..BB-/	-mi-	.	.	.	(4..A-/	.	.	.	.	.	.	.
.	.	.	.	.	.	.	.	.	.	.	(8.d\L	-mi-	.	.
.	.	16E-\)	.	.	.	.	16G/)	.	.	.	16e-\Jk))	.	.	.
=42	=42	=42	=42	=42	=42	=42	=42	=42	=42	=42	=42	=42	=42	=42
*	*	*	*	*	*	*	*^	*	*	*	*^	*	*	*
2.ryy	2.ryy	4E-\	-ni	-że	.	.	4G/	4ryy	.	.	.	4e-\	4ryy	-ni	-że	.
.	.	4r	.	.	.	.	8.r	8.ryy	.	.	.	8.r	8.ryy	.	.	.
!	!	!	!	!	!	!	!	!	!	!	!	!	!	!	!	!LO:DY:a
.	.	.	.	.	.	.	16A-/	16A-\KL	O	Po	.	16c/	16c\KL	O-	Po	p
.	.	4r	.	.	.	.	8.G/	8.G\	.	ca-	.	8.B-/	8.B-\	.	ca-	.
.	.	.	.	.	.	.	16F#X/	16F#\Jk	.	-łym	.	16An/	16An\Jk	.	-łym	.
!!LO:PB:g=original
*	*	*	*	*	*	*	*v	*v	*	*	*	*	*	*	*	*
=43	=43	=43	=43	=43	=43	=43	=43	=43	=43	=43	=43	=43	=43	=43	=43
*	*	*^	*	*	*	*	*	*	*	*	*	*	*	*	*
2.ryy	2.ryy	8r	4ryy	.	.	.	.	4G/	.	.	.	4B-/	4B-\	-san-	świe-	.
.	.	8E-\	.	O-	Po	.	.	.	.	.	.	.	.	.	.	.
.	.	[2E-\	4E-/	-san-	ca-	.	.	8E-/	.	.	.	8G/	8G\	-na	-cie	.
.	.	.	.	.	.	.	.	16A-/	.	.	.	16c\	8ryy	in	sły-	.
.	.	.	.	.	.	.	.	16A-/	.	.	.	16c\	.	ex-	-nie	.
.	.	.	4E-/	.	-łym	.	.	8.G/	.	.	.	8.B-\	4ryy	-cel-	I-	.
.	.	.	.	.	.	.	.	16F#X/	.	.	.	16An\	.	-sis	-mie	.
*	*	*	*	*	*	*	*	*	*	*	*	*v	*v	*	*	*
=44	=44	=44	=44	=44	=44	=44	=44	=44	=44	=44	=44	=44	=44	=44	=44
2.ryy	2.ryy	2E-/]	2E-\	.	świe-	.	.	4G/	.	.	.	(8.B-\L	De-	Two-	.
.	.	.	.	.	.	.	.	.	.	.	.	16e-\Jk)	.	.	.
.	.	.	.	.	.	.	.	8G/	.	.	.	8e-\	-o	-je	.
.	.	.	.	.	.	.	.	8r	.	.	.	8r	.	.	.
.	.	4E-/	4E-\	-na	-cie	.	.	4r	.	.	.	4r	.	.	.
*	*	*v	*v	*	*	*	*	*	*	*	*	*	*	*	*
=45	=45	=45	=45	=45	=45	=45	=45	=45	=45	=45	=45	=45	=45	=45
!	!	!	!	!	!	!LO:DY:a	!	!	!	!	!	!	!	!LO:DY:a
2.ryy	2.ryy	8.AA-/	in	sły-	.	f	8.A-/	.	.	.	8.c\	.	.	f
.	.	16AA-/	ex-	-nie	.	.	16A-/	.	.	.	16c\	.	.	.
.	.	4BB-/	-cel-	I-	.	.	4G/	.	.	.	4B-\	.	.	.
.	.	4BB-/	-sis	-mie	.	.	4F/	.	.	.	4d\	.	.	.
!!LO:LB:g=original
=46	=46	=46	=46	=46	=46	=46	=46	=46	=46	=46	=46	=46	=46	=46
2.E- 2.EE-\	4e- [4G/	[2.E-\	De-	Two-	.	.	[2.G/	.	.	.	[2.e-\	De-	Two-	.
.	4B- 4G/]	.	.	.	.	.	.	.	.	.	.	.	.	.
.	4g 4B-/	.	.	.	.	.	.	.	.	.	.	.	.	.
=47	=47	=47	=47	=47	=47	=47	=47	=47	=47	=47	=47	=47	=47	=47
2.E- 2.EE-\	4e- 4G/	2.E-\]	.	.	.	.	2.G/]	.	.	.	2.e-\]	.	.	.
.	4B- 4G/	.	.	.	.	.	.	.	.	.	.	.	.	.
.	4g 4B-/	.	.	.	.	.	.	.	.	.	.	.	.	.
=48	=48	=48	=48	=48	=48	=48	=48	=48	=48	=48	=48	=48	=48	=48
4E- 4EE-\	4e- 4G/	4E-\	-o.	-je.	.	.	4G/	.	.	.	4e-\	-o.	-je.	.
4BB-\	4B-/	4r	.	.	.	.	4r	.	.	.	4r	.	.	.
4GG\	4G/	4r	.	.	.	.	4r	.	.	.	4r	.	.	.
=49	=49	=49	=49	=49	=49	=49	=49	=49	=49	=49	=49	=49	=49	=49
2EE-;<\	2E-<;>/	4r	.	.	.	.	4r	.	.	.	4r	.	.	.
.	.	4r;>	.	.	.	.	4r;>	.	.	.	4r;>	.	.	.
==	==	==	==	==	==	==	==	==	==	==	==	==	==	==
*-	*-	*-	*-	*-	*-	*-	*-	*-	*-	*-	*-	*-	*-	*-
!!!system-decoration: {(s1,s2,s3)}{(s4,s5)}
!!!RDF**kern: > = above
!!!RDF**kern: < = below
!!!RDF**kern: | = vertical stroke
!!!RDF**kern: N = linked
!!!RDF**kern: i = editorial accidental
!!!EED: Wojciech Jakubiak-Danek
!!!EEV: 2021-07-10
!!!ENC: Andrzej Kubiczek
!!!END: 2021-06-28
!!!YEC: Copyright 2022 Narodowy Instytut Fryderyka Chopina (https://polishscores.org)
!!!YEM: License CC-BY-4.0 (https://creativecommons.org/licenses/by/4.0)
